X:2006
T:Big Ship
T:Glise de Sherbrooke
T:Grande Chaine, La
R:Slide
C:Trad.
O:England via Canada
M:4/4
L:1/8
Q:1/4=160
K:G
D2|"G"G2 GA BABc|d2 dc B2G2|"Am"c2cB AFA2|"G"dedc B2D2|
"G"GFGA BABc|dedc B2G2|"D"cdcB AGFA|"G"G2 B2 G2:|
|:d2|"C"g2gf efge|"G"d2 dc B2G2|"Am"c2 cB A2 A2|"G"dedc B2 d2|
"C"g2gf efge|"G"d2 dc B2G2|"D"cdcB AGFA|"G"G2 B2 G2:|

